svgs/revolut.svg

<?xml version="1.0" encoding="UTF-8" standalone="no"?>
<svg
   width="24"
   height="24"
   viewBox="0 0 6.35 6.35"
   version="1.1"
   id="svg14"
   sodipodi:docname="revolut.svg"
   inkscape:version="1.1.1 (3bf5ae0d25, 2021-09-20)"
   xmlns:inkscape="http://www.inkscape.org/namespaces/inkscape"
   xmlns:sodipodi="http://sodipodi.sourceforge.net/DTD/sodipodi-0.dtd"
   xmlns="http://www.w3.org/2000/svg"
   xmlns:svg="http://www.w3.org/2000/svg">
  <sodipodi:namedview
     id="namedview16"
     pagecolor="#ffffff"
     bordercolor="#666666"
     borderopacity="1.0"
     inkscape:pageshadow="2"
     inkscape:pageopacity="0.0"
     inkscape:pagecheckerboard="0"
     showgrid="false"
     inkscape:zoom="34.708333"
     inkscape:cx="12"
     inkscape:cy="11.985594"
     inkscape:window-width="2560"
     inkscape:window-height="1011"
     inkscape:window-x="0"
     inkscape:window-y="32"
     inkscape:window-maximized="1"
     inkscape:current-layer="svg14" />
  <defs
     id="defs5">
    <clipPath
       id="b">
      <g
         id="use2"
         fill-rule="evenodd"
         stroke-width="0.037">
        <path
           d="m -2.624,-5.481 -0.034,0.236 c 0.041,0 0.135,0.016 0.156,-0.119 0.017,-0.111 -0.06,-0.122 -0.122,-0.117 z"
           id="path935"
           transform="matrix(6.1353,0,0,6.1353,19.145,35.278)"
           style="fill-rule:evenodd;stroke-width:0.037" />
        <path
           d="m -2.265,-4.94 a 0.08,0.08 0 0 1 -0.034,0.099 0.276,0.276 0 0 1 -0.063,0.025 0.532,0.532 0 0 1 -0.11,0.015 0.18,0.18 0 0 1 -0.146,-0.076 0.125,0.125 0 0 1 -0.073,0.057 c -0.027,0.008 -0.059,0.019 -0.126,0.019 a 0.137,0.137 0 0 1 -0.113,-0.05 0.146,0.146 0 0 1 -0.027,-0.114 v -0.002 c 0.023,-0.114 0.054,-0.32 0.068,-0.424 v -0.001 c 0.004,-0.029 0.008,-0.058 0.01,-0.087 a 0.637,0.637 0 0 0 0.003,-0.043 l -10e-4,-0.042 c 0,-0.013 0.002,-0.026 0.008,-0.038 a 0.086,0.086 0 0 1 0.047,-0.04 0.321,0.321 0 0 1 0.065,-0.012 1.739,1.739 0 0 1 0.068,-0.007 1.144,1.144 0 0 1 0.082,-0.003 c 0.048,0 0.095,10e-4 0.141,0.01 0.048,0.01 0.095,0.029 0.133,0.062 0.025,0.022 0.046,0.05 0.06,0.081 a 0.263,0.263 0 0 1 0.023,0.078 0.325,0.325 0 0 1 -0.005,0.118 0.259,0.259 0 0 1 -0.034,0.08 0.33,0.33 0 0 1 -0.07,0.076 c 0.018,0.051 0.064,0.152 0.094,0.218 z m -0.529,-0.619 a 0.563,0.563 0 0 1 -0.004,0.116 l -0.007,0.058 -10e-4,0.006 -0.026,0.18 c -0.01,0.064 -0.02,0.127 -0.032,0.19 -0.004,0.029 -0.016,0.067 0,0.094 0.013,0.025 0.048,0.029 0.073,0.026 0.089,-0.01 0.103,-0.029 0.103,-0.029 -0.018,-0.02 -0.003,-0.109 0.015,-0.23 h 0.063 l 0.067,0.2 c 0,0 0.02,0.063 0.073,0.06 0.07,-0.004 0.12,-0.02 0.128,-0.029 -0.021,-0.012 -0.082,-0.165 -0.116,-0.277 a 0.42,0.42 0 0 0 0.047,-0.032 0.25,0.25 0 0 0 0.053,-0.058 0.17,0.17 0 0 0 0.027,-0.082 0.233,0.233 0 0 0 -0.015,-0.105 0.16,0.16 0 0 0 -0.061,-0.07 0.324,0.324 0 0 0 -0.15,-0.034 0.95,0.95 0 0 0 -0.168,0.005 c -0.006,0 -0.07,0.006 -0.069,0.011 z"
           id="path937"
           transform="matrix(6.1353,0,0,6.1353,19.145,35.278)"
           style="fill-rule:evenodd;stroke-width:0.037" />
      </g>
    </clipPath>
  </defs>
  <path
     d="M 3.0459728,1.6504207 2.8373726,3.0983515 c 0.2515473,0 0.8282655,0.098165 0.9571068,-0.7301007 C 3.8987795,1.6872325 3.4263614,1.6197442 3.0459728,1.6504207 Z"
     id="path7"
     style="fill-rule:evenodd;stroke-width:0.227006" />
  <path
     d="M 5.2485455,4.969618 A 0.490824,0.490824 0 0 1 5.0399453,5.5770127 1.6933428,1.6933428 0 0 1 4.6534214,5.7303952 3.2639796,3.2639796 0 0 1 3.9785384,5.8224247 1.104354,1.104354 0 0 1 3.0827846,5.3561419 0.7669125,0.7669125 0 0 1 2.6349077,5.705854 C 2.4692546,5.7549364 2.272925,5.8224247 1.8618599,5.8224247 A 0.8405361,0.8405361 0 0 1 1.168571,5.5156597 0.8957538,0.8957538 0 0 1 1.0029179,4.8162355 V 4.8039649 C 1.1440298,4.1045407 1.3342241,2.8406689 1.4201183,2.2025977 v -0.00614 c 0.024541,-0.177919 0.049082,-0.3558427 0.061353,-0.5337664 a 3.9081861,3.9081861 0 0 0 0.018406,-0.2638179 l -0.00614,-0.2576826 c 0,-0.079759 0.012271,-0.1595178 0.049082,-0.2331414 A 0.5276358,0.5276358 0 0 1 1.8311834,0.6626374 1.9694313,1.9694313 0 0 1 2.2299779,0.5890138 10.669287,10.669287 0 0 1 2.6471783,0.5460667 7.0187832,7.0187832 0 0 1 3.1502729,0.5276608 c 0.2944944,0 0.5828535,0.006135 0.8650773,0.061353 0.2944944,0.061353 0.5828535,0.1779237 0.8159949,0.3803886 0.1533825,0.1349766 0.2822238,0.306765 0.368118,0.4969593 A 1.6135839,1.6135839 0 0 1 5.340575,1.9449151 1.9939725,1.9939725 0 0 1 5.3098985,2.6688805 1.5890427,1.5890427 0 0 1 5.1012983,3.1597045 2.024649,2.024649 0 0 1 4.6718273,3.6259873 C 4.7822627,3.9388876 5.0644865,4.5585529 5.2485455,4.9634827 Z M 2.0029718,1.1718673 a 3.4541739,3.4541739 0 0 1 -0.024541,0.7116948 l -0.042947,0.3558474 -0.00614,0.036812 -0.1595178,1.104354 C 1.708473,3.7732347 1.64712,4.1597586 1.5734964,4.5462825 c -0.024541,0.1779237 -0.098165,0.4110651 0,0.5767182 C 1.6532597,5.276383 1.8679952,5.3009242 2.0213777,5.2825183 2.5674194,5.2211653 2.6533136,5.1045946 2.6533136,5.1045946 2.5428782,4.9818886 2.6349077,4.4358469 2.7453431,3.6934756 H 3.131867 l 0.4110651,1.22706 c 0,0 0.122706,0.3865239 0.4478769,0.368118 C 4.42028,5.2641124 4.727045,5.1659476 4.7761274,5.1107299 4.6472861,5.0371063 4.2730328,4.0984054 4.0644326,3.4112518 A 2.576826,2.576826 0 0 0 4.3527917,3.2149222 1.533825,1.533825 0 0 0 4.6779626,2.8590748 1.043001,1.043001 0 0 0 4.8436157,2.3559802 1.4295249,1.4295249 0 0 0 4.7515862,1.7117737 0.981648,0.981648 0 0 0 4.3773329,1.2823027 1.9878372,1.9878372 0 0 0 3.4570379,1.0737025 5.828535,5.828535 0 0 0 2.4263075,1.104379 c -0.036812,0 -0.429471,0.036812 -0.4233357,0.067488 z"
     id="path9"
     style="fill-rule:evenodd;stroke-width:0.227006" />
</svg>

<svg xmlns="http://www.w3.org/2000/svg" width="24" height="24" viewBox="0 0 6.35 6.35"><path d="m3.046 1.65-.209 1.448c.252 0 .829.099.957-.73.105-.68-.368-.748-.748-.718" style="fill-rule:evenodd;stroke-width:.227006"/><path d="M5.249 4.97a.49.49 0 0 1-.21.607 1.693 1.693 0 0 1-.386.153 3.264 3.264 0 0 1-.674.092 1.104 1.104 0 0 1-.896-.466.767.767 0 0 1-.448.35c-.166.049-.362.116-.773.116a.84.84 0 0 1-.693-.306.896.896 0 0 1-.166-.7v-.012c.141-.7.331-1.963.417-2.601v-.007c.025-.177.05-.355.061-.533a3.908 3.908 0 0 0 .019-.264l-.006-.258c0-.08.012-.16.049-.233A.528.528 0 0 1 1.83.663a1.97 1.97 0 0 1 .4-.074 10.67 10.67 0 0 1 .417-.043A7.019 7.019 0 0 1 3.15.528c.295 0 .583.006.865.061.295.061.583.178.816.38.154.135.283.307.368.497a1.614 1.614 0 0 1 .142.479 1.994 1.994 0 0 1-.031.724 1.589 1.589 0 0 1-.209.49 2.025 2.025 0 0 1-.43.467c.111.313.393.933.578 1.337ZM2.003 1.172a3.454 3.454 0 0 1-.025.712l-.043.355-.006.037-.16 1.105c-.06.392-.122.779-.196 1.165-.024.178-.098.411 0 .577.08.153.295.178.448.16.546-.062.632-.178.632-.178-.11-.123-.018-.67.092-1.412h.387l.41 1.228s.124.386.449.368c.43-.025.736-.123.785-.178-.129-.074-.503-1.013-.712-1.7a2.577 2.577 0 0 0 .289-.196 1.534 1.534 0 0 0 .325-.356 1.043 1.043 0 0 0 .166-.503 1.43 1.43 0 0 0-.092-.644.982.982 0 0 0-.375-.43 1.988 1.988 0 0 0-.92-.208 5.829 5.829 0 0 0-1.03.03c-.038 0-.43.037-.424.068z" style="fill-rule:evenodd;stroke-width:.227006"/></svg>
